icons/advertisement-line.svg

<svg xmlns="http://www.w3.org/2000/svg" width="24" height="24" fill="none"><g clip-path="url(#a)"><g><path fill="#121212" d="M21 3C21.2652 3 21.5196 3.10536 21.7071 3.29289C21.8946 3.48043 22 3.73478 22 4V20C22 20.2652 21.8946 20.5196 21.7071 20.7071C21.5196 20.8946 21.2652 21 21 21H3C2.73478 21 2.48043 20.8946 2.29289 20.7071C2.10536 20.5196 2 20.2652 2 20V4C2 3.73478 2.10536 3.48043 2.29289 3.29289C2.48043 3.10536 2.73478 3 3 3H21ZM20 5H4V19H20V5ZM9.399 8L12.598 16H10.443L10.043 15H6.753L6.353 16H4.199L7.399 8H9.399ZM19 8V16H16C15.2044 16 14.4413 15.6839 13.8787 15.1213C13.3161 14.5587 13 13.7956 13 13C13 12.2044 13.3161 11.4413 13.8787 10.8787C14.4413 10.3161 15.2044 10 16 10H16.999L17 8H19ZM17 12H16C15.7451 12.0003 15.5 12.0979 15.3146 12.2728C15.1293 12.4478 15.0178 12.687 15.0028 12.9414C14.9879 13.1958 15.0707 13.4464 15.2343 13.6418C15.3979 13.8373 15.6299 13.9629 15.883 13.993L16 14H17V12ZM8.399 10.885L7.552 13H9.244L8.399 10.885Z"/></g></g><defs><clipPath id="a"><rect width="24" height="24" fill="white"/></clipPath></defs></svg>

<svg width="24" height="24" fill="none" xmlns="http://www.w3.org/2000/svg"><g clip-path="url(#a)"><path d="M21 3a1 1 0 0 1 1 1v16a1 1 0 0 1-1 1H3a1 1 0 0 1-1-1V4a1 1 0 0 1 1-1h18Zm-1 2H4v14h16V5ZM9.399 8l3.199 8h-2.155l-.4-1h-3.29l-.4 1H4.199l3.2-8h2ZM19 8v8h-3a3 3 0 0 1 0-6h.999L17 8h2Zm-2 4h-1a1 1 0 0 0-.117 1.993L16 14h1v-2Zm-8.601-1.115L7.552 13h1.692l-.845-2.115Z" /></g><defs><clipPath id="a"><path fill="#fff" d="M0 0h24v24H0z"/></clipPath></defs></svg>
